X: 18331
T: Humours Of Westmeath, The
R: slip jig
M: 9/8
K: Dmajor
ABc dAG FDF|ABc dAG G2 E|ABc dAG FDF|
=cdc cEF G2 E||d3 dfd e/f/ge|d3 dfd g2 e|
d3 dfd e/f/ge|=cdc cEF G2 E||d2 d dAG FDF|
ded dAF G2 E|ded dAG FDF|=cdc cEF G2 E||
D/D/DD FDF ECE|F/D/DD FDF E/F/GE|
F/D/DD FDF ECE|=cdc cEF G2 E||

